images/Cyprus_road_sign_no_agricle_vehicles.svg

<svg xmlns="http://www.w3.org/2000/svg" width="213.556" height="213.418"><path d="M0 0c7.465 0 13.608 6.117 13.608 13.582 0 7.49-6.143 13.61-13.608 13.61-7.491 0-13.61-6.12-13.61-13.61C-13.61 6.117-7.491 0 0 0" style="fill:#fff;fill-opacity:1;fill-rule:evenodd;stroke:none" transform="matrix(6.28013 0 0 -6.28013 106.769 192.088)"/><path d="M0 0c7.467 0 13.608 6.119 13.608 13.584 0 7.491-6.141 13.608-13.608 13.608-7.491 0-13.608-6.117-13.608-13.608C-13.608 6.119-7.491 0 0 0m0-3.394c9.356 0 17.004 7.648 17.004 16.978 0 9.359-7.648 17.005-17.004 17.005-9.354 0-17.001-7.646-17.001-17.005 0-9.33 7.647-16.978 17.001-16.978" style="fill:#ed1d24;fill-opacity:1;fill-rule:evenodd;stroke:none" transform="matrix(6.28013 0 0 -6.28013 106.769 192.103)"/><path style="fill:#000;fill-opacity:1;fill-rule:nonzero;stroke:none" d="M0 0a4.293 4.293 0 1 0-8.586.002A4.293 4.293 0 0 0 0 0" transform="matrix(6.2816 0 0 -6.2816 112.681 122.721)"/><path style="fill:#000;fill-opacity:1;fill-rule:nonzero;stroke:none" d="M0 0a2.26 2.26 0 1 0-4.521 0A2.26 2.26 0 1 0 0 0" transform="matrix(6.2816 0 0 -6.2816 99.917 122.721)"/><g style="stroke:#fff;stroke-width:.3951228;stroke-miterlimit:4;stroke-opacity:1;stroke-dasharray:none"><path style="fill:none;stroke:#fff;stroke-width:.3951228;stroke-linecap:butt;stroke-linejoin:miter;stroke-miterlimit:4;stroke-opacity:1;stroke-dasharray:none" d="M0 0a2.26 2.26 0 1 0-4.521 0A2.26 2.26 0 1 0 0 0z" transform="matrix(6.2816 0 0 -6.2816 99.917 122.721)"/></g><path style="fill:#000;fill-opacity:1;fill-rule:nonzero;stroke:none" d="M0 0h-5.796v-2.592c-.823 2.21-2.877 3.78-5.286 3.78-3.13 0-5.67-2.646-5.67-5.909h.822c0 2.79 2.172 5.053 4.849 5.053s4.849-2.263 4.849-5.053c0-.448-.056-.882-.162-1.295l.598.027v-.027h.871c.145-.054.296-.089.456-.089H0c.825 0 1.492.756 1.492 1.689v2.726C1.492-.756.825 0 0 0" transform="matrix(6.2816 0 0 -6.2816 155.53 94.138)"/><path style="fill:#fff;fill-opacity:1;fill-rule:nonzero;stroke:none" d="M0 0a2.662 2.662 0 1 0-5.325 0A2.663 2.663 0 1 0 0 0" transform="matrix(6.2816 0 0 -6.2816 164.24 131.996)"/><path style="fill:#000;fill-opacity:1;fill-rule:nonzero;stroke:none" d="M0 0a2.11 2.11 0 1 0-4.219 0A2.11 2.11 0 0 0 0 0" transform="matrix(6.2816 0 0 -6.2816 160.256 132.633)"/><path style="fill:#000;fill-opacity:1;fill-rule:nonzero;stroke:none" d="M0 0v1.925l.006.59c.21.252.425.501.647.743.198.214.484.385.666.583.135.147-.108.782-.123.967-.025.349.473.64.767.766.412.181 1.077-.212 1.396-.46.305-.239-.167-.429-.187-.682-.036-.43.017-.476-.364-.654-.396-.185-.454-.122-.294-.53.103-.269.177-.489.224-.772l.173-1.037c.022-.127.305-.246.403-.313L4.966 0l.244.68.601.119c.054-.389-.038-.767.018-1.158.017-.12.525-.269.627-.314.272-.123 1.203-.332 1.096-.67-.366-1.149-.731-2.298-1.094-3.447l-.806.643c-.189.151-.553.335-.654.565l-.507 1.167c-.059.134-.223.751-.366.805C2.752-1.073 1.376-.537 0 0" transform="matrix(6.2816 0 0 -6.2816 81.58 86.673)"/></svg>

<?xml version="1.0" encoding="UTF-8" standalone="no"?>
<!-- Created with Inkscape (http://www.inkscape.org/) -->

<svg
   xmlns:dc="http://purl.org/dc/elements/1.1/"
   xmlns:cc="http://creativecommons.org/ns#"
   xmlns:rdf="http://www.w3.org/1999/02/22-rdf-syntax-ns#"
   xmlns:svg="http://www.w3.org/2000/svg"
   xmlns="http://www.w3.org/2000/svg"
   xmlns:sodipodi="http://sodipodi.sourceforge.net/DTD/sodipodi-0.dtd"
   xmlns:inkscape="http://www.inkscape.org/namespaces/inkscape"
   width="213.55592"
   height="213.41776"
   id="svg4205"
   version="1.1"
   inkscape:version="0.47 r22583"
   sodipodi:docname="Cyprus road sign no motor vehicles.svg">
  <defs
     id="defs4207">
    <inkscape:perspective
       sodipodi:type="inkscape:persp3d"
       inkscape:vp_x="0 : 526.18109 : 1"
       inkscape:vp_y="0 : 1000 : 0"
       inkscape:vp_z="744.09448 : 526.18109 : 1"
       inkscape:persp3d-origin="372.04724 : 350.78739 : 1"
       id="perspective4213" />
    <inkscape:perspective
       id="perspective4228"
       inkscape:persp3d-origin="106.21 : 70.796666 : 1"
       inkscape:vp_z="212.42 : 106.195 : 1"
       inkscape:vp_y="0 : 1000 : 0"
       inkscape:vp_x="0 : 106.195 : 1"
       sodipodi:type="inkscape:persp3d" />
    <clipPath
       id="clipPath16">
      <path
         inkscape:connector-curvature="0"
         d="M 0.059998,169.98 H 170 V 0.06 H 0.059998 v 169.92 z"
         id="path18" />
    </clipPath>
    <inkscape:perspective
       id="perspective4247"
       inkscape:persp3d-origin="0.5 : 0.33333333 : 1"
       inkscape:vp_z="1 : 0.5 : 1"
       inkscape:vp_y="0 : 1000 : 0"
       inkscape:vp_x="0 : 0.5 : 1"
       sodipodi:type="inkscape:persp3d" />
    <clipPath
       clipPathUnits="userSpaceOnUse"
       id="clipPath3426">
      <path
         d="m 43.076,488.976 34.845,0 0,34.015 -34.845,0 0,-34.015 z"
         id="path3428" />
    </clipPath>
    <inkscape:perspective
       id="perspective4323"
       inkscape:persp3d-origin="0.5 : 0.33333333 : 1"
       inkscape:vp_z="1 : 0.5 : 1"
       inkscape:vp_y="0 : 1000 : 0"
       inkscape:vp_x="0 : 0.5 : 1"
       sodipodi:type="inkscape:persp3d" />
    <clipPath
       clipPathUnits="userSpaceOnUse"
       id="clipPath2896">
      <path
         d="m 102.752,490.181 34.845,0 0,34.016 -34.845,0 0,-34.016 z"
         id="path2898" />
    </clipPath>
    <inkscape:perspective
       id="perspective5249"
       inkscape:persp3d-origin="0.5 : 0.33333333 : 1"
       inkscape:vp_z="1 : 0.5 : 1"
       inkscape:vp_y="0 : 1000 : 0"
       inkscape:vp_x="0 : 0.5 : 1"
       sodipodi:type="inkscape:persp3d" />
    <inkscape:perspective
       id="perspective5326"
       inkscape:persp3d-origin="0.5 : 0.33333333 : 1"
       inkscape:vp_z="1 : 0.5 : 1"
       inkscape:vp_y="0 : 1000 : 0"
       inkscape:vp_x="0 : 0.5 : 1"
       sodipodi:type="inkscape:persp3d" />
    <clipPath
       clipPathUnits="userSpaceOnUse"
       id="clipPath3128">
      <path
         d="m 164.704,490.181 34.845,0 0,34.016 -34.845,0 0,-34.016 z"
         id="path3130" />
    </clipPath>
    <inkscape:perspective
       id="perspective5450"
       inkscape:persp3d-origin="0.5 : 0.33333333 : 1"
       inkscape:vp_z="1 : 0.5 : 1"
       inkscape:vp_y="0 : 1000 : 0"
       inkscape:vp_x="0 : 0.5 : 1"
       sodipodi:type="inkscape:persp3d" />
    <clipPath
       clipPathUnits="userSpaceOnUse"
       id="clipPath3318">
      <path
         d="m 224.23,490.181 34.845,0 0,34.016 -34.845,0 0,-34.016 z"
         id="path3320" />
    </clipPath>
    <inkscape:perspective
       id="perspective5517"
       inkscape:persp3d-origin="0.5 : 0.33333333 : 1"
       inkscape:vp_z="1 : 0.5 : 1"
       inkscape:vp_y="0 : 1000 : 0"
       inkscape:vp_x="0 : 0.5 : 1"
       sodipodi:type="inkscape:persp3d" />
    <clipPath
       clipPathUnits="userSpaceOnUse"
       id="clipPath2936">
      <path
         d="m 43.087,413.859 34.845,0 0,34.016 -34.845,0 0,-34.016 z"
         id="path2938" />
    </clipPath>
    <inkscape:perspective
       id="perspective5617"
       inkscape:persp3d-origin="0.5 : 0.33333333 : 1"
       inkscape:vp_z="1 : 0.5 : 1"
       inkscape:vp_y="0 : 1000 : 0"
       inkscape:vp_x="0 : 0.5 : 1"
       sodipodi:type="inkscape:persp3d" />
    <clipPath
       clipPathUnits="userSpaceOnUse"
       id="clipPath3572">
      <path
         d="m 102.752,413.859 34.845,0 0,34.016 -34.845,0 0,-34.016 z"
         id="path3574" />
    </clipPath>
  </defs>
  <sodipodi:namedview
     id="base"
     pagecolor="#ffffff"
     bordercolor="#666666"
     borderopacity="1.0"
     inkscape:pageopacity="0.0"
     inkscape:pageshadow="2"
     inkscape:zoom="2.362731"
     inkscape:cx="5.7973335"
     inkscape:cy="65.308887"
     inkscape:document-units="px"
     inkscape:current-layer="layer1"
     showgrid="false"
     inkscape:window-width="1600"
     inkscape:window-height="838"
     inkscape:window-x="-8"
     inkscape:window-y="-8"
     inkscape:window-maximized="1" />
  <metadata
     id="metadata4210">
    <rdf:RDF>
      <cc:Work
         rdf:about="">
        <dc:format>image/svg+xml</dc:format>
        <dc:type
           rdf:resource="http://purl.org/dc/dcmitype/StillImage" />
        <dc:title></dc:title>
      </cc:Work>
    </rdf:RDF>
  </metadata>
  <g
     inkscape:label="Livello 1"
     inkscape:groupmode="layer"
     id="layer1"
     transform="translate(-175.27493,-427.37091)">
    <g
       id="g2940"
       transform="matrix(6.2801329,0,0,-6.2801329,282.04347,619.45882)">
      <path
         d="m 0,0 c 7.465,0 13.608,6.117 13.608,13.582 0,7.49 -6.143,13.61 -13.608,13.61 -7.491,0 -13.61,-6.12 -13.61,-13.61 C -13.61,6.117 -7.491,0 0,0"
         style="fill:#ffffff;fill-opacity:1;fill-rule:evenodd;stroke:none"
         id="path2942" />
    </g>
    <g
       id="g2944"
       transform="matrix(6.2801329,0,0,-6.2801329,282.04347,619.47389)">
      <path
         d="m 0,0 c 7.467,0 13.608,6.119 13.608,13.584 0,7.491 -6.141,13.608 -13.608,13.608 -7.491,0 -13.608,-6.117 -13.608,-13.608 C -13.608,6.119 -7.491,0 0,0 m 0,-3.394 c 9.356,0 17.004,7.648 17.004,16.978 0,9.359 -7.648,17.005 -17.004,17.005 -9.354,0 -17.001,-7.646 -17.001,-17.005 0,-9.33 7.647,-16.978 17.001,-16.978"
         style="fill:#ed1d24;fill-opacity:1;fill-rule:evenodd;stroke:none"
         id="path2946" />
    </g>
    <g
       id="g5721"
       transform="translate(239.86034,-15.12041)">
      <g
         transform="matrix(6.2815914,0,0,-6.2815914,48.095994,565.21277)"
         id="g3580">
        <path
           id="path3582"
           style="fill:#000000;fill-opacity:1;fill-rule:nonzero;stroke:none"
           d="m 0,0 c 0,-2.371 -1.923,-4.292 -4.294,-4.292 -2.37,0 -4.292,1.921 -4.292,4.292 0,2.371 1.922,4.293 4.292,4.293 C -1.923,4.293 0,2.371 0,0" />
      </g>
      <g
         transform="matrix(6.2815914,0,0,-6.2815914,35.331109,565.21277)"
         id="g3584">
        <path
           id="path3586"
           style="fill:#000000;fill-opacity:1;fill-rule:nonzero;stroke:none"
           d="m 0,0 c 0,-1.248 -1.014,-2.26 -2.262,-2.26 -1.248,0 -2.259,1.012 -2.259,2.26 0,1.249 1.011,2.261 2.259,2.261 C -1.014,2.261 0,1.249 0,0" />
      </g>
      <g
         style="stroke:#ffffff;stroke-width:0.3951228;stroke-miterlimit:4;stroke-opacity:1;stroke-dasharray:none"
         transform="matrix(6.2815914,0,0,-6.2815914,35.331109,565.21277)"
         id="g3588">
        <path
           id="path3590"
           style="fill:none;stroke:#ffffff;stroke-width:0.3951228;stroke-linecap:butt;stroke-linejoin:miter;stroke-miterlimit:4;stroke-opacity:1;stroke-dasharray:none"
           d="m 0,0 c 0,-1.248 -1.014,-2.26 -2.262,-2.26 -1.248,0 -2.259,1.012 -2.259,2.26 0,1.249 1.011,2.261 2.259,2.261 C -1.014,2.261 0,1.249 0,0 z" />
      </g>
      <g
         transform="matrix(6.2815914,0,0,-6.2815914,90.945179,536.62958)"
         id="g3592">
        <path
           id="path3594"
           style="fill:#000000;fill-opacity:1;fill-rule:nonzero;stroke:none"
           d="m 0,0 -1.39,0 -3.079,0 -1.327,0 0,-2.592 c -0.823,2.21 -2.877,3.78 -5.286,3.78 -3.13,0 -5.67,-2.646 -5.67,-5.909 l 0.822,0 c 0,2.79 2.172,5.053 4.849,5.053 2.677,0 4.849,-2.263 4.849,-5.053 0,-0.448 -0.056,-0.882 -0.162,-1.295 l 0.598,0.027 0,-0.027 0.871,0 c 0.145,-0.054 0.296,-0.089 0.456,-0.089 l 4.469,0 c 0.825,0 1.492,0.756 1.492,1.689 l 0,2.726 C 1.492,-0.756 0.825,0 0,0" />
      </g>
      <g
         transform="matrix(6.2815914,0,0,-6.2815914,99.654103,574.48741)"
         id="g3596">
        <path
           id="path3598"
           style="fill:#ffffff;fill-opacity:1;fill-rule:nonzero;stroke:none"
           d="m 0,0 c 0,-1.471 -1.192,-2.663 -2.661,-2.663 -1.471,0 -2.664,1.192 -2.664,2.663 0,1.471 1.193,2.664 2.664,2.664 C -1.192,2.664 0,1.471 0,0" />
      </g>
      <g
         transform="matrix(6.2815914,0,0,-6.2815914,95.670883,575.12443)"
         id="g3600">
        <path
           id="path3602"
           style="fill:#000000;fill-opacity:1;fill-rule:nonzero;stroke:none"
           d="m 0,0 c 0,-1.165 -0.945,-2.109 -2.109,-2.109 -1.164,0 -2.11,0.944 -2.11,2.109 0,1.165 0.946,2.11 2.11,2.11 C -0.945,2.11 0,1.165 0,0" />
      </g>
      <g
         transform="matrix(6.2815914,0,0,-6.2815914,16.995207,529.16453)"
         id="g3604">
        <path
           id="path3606"
           style="fill:#000000;fill-opacity:1;fill-rule:nonzero;stroke:none"
           d="m 0,0 0,1.925 0.006,0.59 C 0.216,2.767 0.431,3.016 0.653,3.258 0.851,3.472 1.137,3.643 1.319,3.841 1.454,3.988 1.211,4.623 1.196,4.808 1.171,5.157 1.669,5.448 1.963,5.574 2.375,5.755 3.04,5.362 3.359,5.114 3.664,4.875 3.192,4.685 3.172,4.432 3.136,4.002 3.189,3.956 2.808,3.778 2.412,3.593 2.354,3.656 2.514,3.248 2.617,2.979 2.691,2.759 2.738,2.476 2.796,2.13 2.854,1.784 2.911,1.439 2.933,1.312 3.216,1.193 3.314,1.126 3.865,0.75 4.417,0.375 4.966,0 5.048,0.226 5.129,0.453 5.21,0.68 L 5.811,0.799 C 5.865,0.41 5.773,0.032 5.829,-0.359 5.846,-0.479 6.354,-0.628 6.456,-0.673 6.728,-0.796 7.659,-1.005 7.552,-1.343 7.186,-2.492 6.821,-3.641 6.458,-4.79 6.189,-4.575 5.92,-4.361 5.652,-4.147 5.463,-3.996 5.099,-3.812 4.998,-3.582 4.829,-3.193 4.659,-2.804 4.491,-2.415 4.432,-2.281 4.268,-1.664 4.125,-1.61 2.752,-1.073 1.376,-0.537 0,0" />
      </g>
    </g>
  </g>
</svg>
